X: 10121
T: LORD Mc DONALD'S REEL
R: reel
B: "Edinburgh Repository of Music" v.1 p.12 #1
F: http://digital.nls.uk/special-collections-of-printed-music/pageturner.cfm?id=87776133
N: Bar 8 is indicated as in either octave; bars 9-12 are to be played low the 1st time and high the 2nd time.
Z: 2015 John Chambers <jc:trillian.mit.edu>
M: C|
L: 1/8
K: G
B |\
d3e d>Bg>B | dBgB aA-AB |\
Td^cde dBgB | (A/B/c) TBA BGG :|\
|: B |\
DGBG TAGBG | DGBG TAGAB |
DGBG AGBG | "or"[dD][eE][dD][cC] [BB,][GG,][GG,]B |\
"8va 2d time."\
DGBG TAGBG | DGBG TA>GEc | BAGF GFED | EFGA BGG :|
